static/img/cam-server/ico-header-settings.svg

<svg width="20" height="20" viewBox="0 0 20 20" fill="none" xmlns="http://www.w3.org/2000/svg">
<mask id="path-1-inside-1_1267_14899" fill="white">
<path fill-rule="evenodd" clip-rule="evenodd" d="M10.6487 1.5C11.4948 1.50022 12.1968 2.14659 12.2571 2.98047L12.3616 4.06738C12.9628 4.30122 13.5196 4.62118 14.0169 5.0127L15.0237 4.55859C15.7849 4.19318 16.7021 4.47119 17.1253 5.19531L17.7747 6.30469C18.1978 7.02877 17.9823 7.95325 17.2815 8.42188L16.3811 9.05371C16.4276 9.36241 16.4524 9.67852 16.4524 10C16.4524 10.3192 16.428 10.6328 16.3821 10.9395L17.3059 11.5732C17.9951 12.0458 18.2029 12.9619 17.7835 13.6797L17.1165 14.8203C16.697 15.5381 15.7904 15.8182 15.0315 15.4648L14.012 14.9902C13.5173 15.379 12.9639 15.6968 12.3665 15.9297L12.2737 17.0391C12.2038 17.8648 11.505 18.4999 10.6663 18.5H9.33328C8.49451 18.5 7.79577 17.8649 7.72586 17.0391L7.63114 15.9297C7.03397 15.6966 6.48107 15.378 5.98661 14.9893L4.96707 15.4648C4.2082 15.8182 3.30158 15.5382 2.88211 14.8203L2.2161 13.6797C1.79664 12.9619 2.00351 12.0459 2.69266 11.5732L3.61746 10.9385C3.57171 10.6322 3.54717 10.3189 3.54715 10C3.54715 9.6792 3.57215 9.36374 3.61844 9.05566L2.71707 8.42188C2.01648 7.9532 1.80182 7.02868 2.22489 6.30469L2.87332 5.19531C3.29642 4.47126 4.21374 4.19333 4.97489 4.55859L5.98172 5.0127C6.47865 4.62133 7.03522 4.30127 7.63602 4.06738L7.74149 2.98047C7.80178 2.14645 8.50458 1.5 9.35086 1.5H10.6487Z"/>
</mask>
<path d="M10.6487 1.5L10.649 0.5H10.6487V1.5ZM12.2571 2.98047L11.2597 3.05258L11.2606 3.06438L11.2617 3.07616L12.2571 2.98047ZM12.3616 4.06738L11.3662 4.16308L11.4251 4.77613L11.9991 4.99938L12.3616 4.06738ZM14.0169 5.0127L13.3983 5.7984L13.875 6.17371L14.428 5.92427L14.0169 5.0127ZM15.0237 4.55859L15.4349 5.47017L15.4457 5.46526L15.4565 5.46009L15.0237 4.55859ZM17.1253 5.19531L16.2619 5.69984L16.2623 5.70051L17.1253 5.19531ZM17.7747 6.30469L18.6381 5.80016L18.6377 5.79949L17.7747 6.30469ZM17.2815 8.42188L16.7257 7.59061L16.7163 7.59686L16.7071 7.60331L17.2815 8.42188ZM16.3811 9.05371L15.8067 8.23515L15.3001 8.59064L15.3923 9.20261L16.3811 9.05371ZM16.4524 10L17.4524 10V10H16.4524ZM16.3821 10.9395L15.3931 10.7916L15.3006 11.4102L15.8164 11.7641L16.3821 10.9395ZM17.3059 11.5732L16.7402 12.3978L16.7404 12.398L17.3059 11.5732ZM17.7835 13.6797L18.6467 14.1845L18.6469 14.1841L17.7835 13.6797ZM17.1165 14.8203L16.2532 14.3155L16.2531 14.3157L17.1165 14.8203ZM15.0315 15.4648L15.4537 14.5583L15.4536 14.5583L15.0315 15.4648ZM14.012 14.9902L14.434 14.0837L13.8771 13.8244L13.3941 14.204L14.012 14.9902ZM12.3665 15.9297L12.0032 14.998L11.422 15.2246L11.37 15.8464L12.3665 15.9297ZM12.2737 17.0391L13.2702 17.1234L13.2702 17.1224L12.2737 17.0391ZM10.6663 18.5V19.5H10.6665L10.6663 18.5ZM9.33328 18.5V19.5V19.5V18.5ZM7.72586 17.0391L8.7223 16.9547L8.72224 16.954L7.72586 17.0391ZM7.63114 15.9297L8.62751 15.8446L8.57455 15.2244L7.9947 14.9981L7.63114 15.9297ZM5.98661 14.9893L6.60468 14.2031L6.12121 13.823L5.56386 14.083L5.98661 14.9893ZM4.96707 15.4648L5.38923 16.3714L5.38982 16.3711L4.96707 15.4648ZM2.88211 14.8203L2.01855 15.3246L2.01872 15.3248L2.88211 14.8203ZM2.2161 13.6797L3.07966 13.1754L3.07949 13.1752L2.2161 13.6797ZM2.69266 11.5732L3.25825 12.3979L3.25856 12.3977L2.69266 11.5732ZM3.61746 10.9385L4.18337 11.7629L4.69886 11.4091L4.60649 10.7907L3.61746 10.9385ZM3.54715 10H2.54715V10L3.54715 10ZM3.61844 9.05566L4.60734 9.20426L4.69917 8.59311L4.19363 8.23764L3.61844 9.05566ZM2.71707 8.42188L3.29226 7.60385L3.28276 7.59717L3.2731 7.59071L2.71707 8.42188ZM2.22489 6.30469L1.36155 5.80006L1.36149 5.80016L2.22489 6.30469ZM2.87332 5.19531L3.73666 5.69994L3.73672 5.69984L2.87332 5.19531ZM4.97489 4.55859L4.54224 5.46016L4.55294 5.46529L4.56375 5.47017L4.97489 4.55859ZM5.98172 5.0127L5.57059 5.92427L6.12374 6.17375L6.60045 5.7983L5.98172 5.0127ZM7.63602 4.06738L7.9988 4.99926L8.57194 4.77613L8.63134 4.16396L7.63602 4.06738ZM7.74149 2.98047L8.73681 3.07705L8.738 3.06483L8.73888 3.05258L7.74149 2.98047ZM10.6487 1.5L10.6485 2.5C10.9802 2.50009 11.2379 2.75132 11.2597 3.05258L12.2571 2.98047L13.2545 2.90836C13.1557 1.54187 12.0094 0.500359 10.649 0.5L10.6487 1.5ZM12.2571 2.98047L11.2617 3.07616L11.3662 4.16308L12.3616 4.06738L13.357 3.97169L13.2525 2.88477L12.2571 2.98047ZM12.3616 4.06738L11.9991 4.99938C12.5074 5.19707 12.978 5.46752 13.3983 5.7984L14.0169 5.0127L14.6355 4.22699C14.0612 3.77485 13.4182 3.40536 12.7241 3.13539L12.3616 4.06738ZM14.0169 5.0127L14.428 5.92427L15.4349 5.47017L15.0237 4.55859L14.6126 3.64702L13.6057 4.10112L14.0169 5.0127ZM15.0237 4.55859L15.4565 5.46009C15.753 5.31773 16.1042 5.43004 16.2619 5.69984L17.1253 5.19531L17.9887 4.69079C17.3001 3.51235 15.8168 3.06862 14.5909 3.65709L15.0237 4.55859ZM17.1253 5.19531L16.2623 5.70051L16.9117 6.80988L17.7747 6.30469L18.6377 5.79949L17.9883 4.69012L17.1253 5.19531ZM17.7747 6.30469L16.9113 6.80921C17.0652 7.07261 16.9909 7.41324 16.7257 7.59061L17.2815 8.42188L17.8374 9.25314C18.9737 8.49326 19.3304 6.98492 18.6381 5.80016L17.7747 6.30469ZM17.2815 8.42188L16.7071 7.60331L15.8067 8.23515L16.3811 9.05371L16.9556 9.87228L17.8559 9.24044L17.2815 8.42188ZM16.3811 9.05371L15.3923 9.20261C15.4316 9.46369 15.4524 9.73001 15.4524 10H16.4524H17.4524C17.4524 9.62702 17.4236 9.26114 17.37 8.90481L16.3811 9.05371ZM16.4524 10L15.4524 9.99996C15.4524 10.268 15.4319 10.5322 15.3931 10.7916L16.3821 10.9395L17.3711 11.0873C17.424 10.7334 17.4524 10.3704 17.4524 10L16.4524 10ZM16.3821 10.9395L15.8164 11.7641L16.7402 12.3978L17.3059 11.5732L17.8717 10.7486L16.9478 10.1149L16.3821 10.9395ZM17.3059 11.5732L16.7404 12.398C17.001 12.5766 17.0727 12.914 16.92 13.1752L17.7835 13.6797L18.6469 14.1841C19.333 13.0098 18.9893 11.515 17.8715 10.7485L17.3059 11.5732ZM17.7835 13.6797L16.9202 13.1749L16.2532 14.3155L17.1165 14.8203L17.9797 15.3251L18.6467 14.1845L17.7835 13.6797ZM17.1165 14.8203L16.2531 14.3157C16.0971 14.5827 15.7498 14.6962 15.4537 14.5583L15.0315 15.4648L14.6094 16.3714C15.8309 16.9402 17.2969 16.4935 17.9799 15.3249L17.1165 14.8203ZM15.0315 15.4648L15.4536 14.5583L14.434 14.0837L14.012 14.9902L13.59 15.8968L14.6095 16.3714L15.0315 15.4648ZM14.012 14.9902L13.3941 14.204C12.9762 14.5324 12.5085 14.801 12.0032 14.998L12.3665 15.9297L12.7297 16.8614C13.4193 16.5925 14.0584 16.2256 14.6299 15.7765L14.012 14.9902ZM12.3665 15.9297L11.37 15.8464L11.2772 16.9557L12.2737 17.0391L13.2702 17.1224L13.363 16.013L12.3665 15.9297ZM12.2737 17.0391L11.2773 16.9547C11.2521 17.2527 10.9954 17.4999 10.6661 17.5L10.6663 18.5L10.6665 19.5C12.0145 19.4998 13.1556 18.4769 13.2702 17.1234L12.2737 17.0391ZM10.6663 18.5V17.5H9.33328V18.5V19.5H10.6663V18.5ZM9.33328 18.5V17.5C9.00418 17.5 8.74755 17.2529 8.7223 16.9547L7.72586 17.0391L6.72943 17.1234C6.84399 18.4768 7.98484 19.5 9.33328 19.5V18.5ZM7.72586 17.0391L8.72224 16.954L8.62751 15.8446L7.63114 15.9297L6.63476 16.0148L6.72949 17.1241L7.72586 17.0391ZM7.63114 15.9297L7.9947 14.9981C7.49044 14.8013 7.02309 14.5321 6.60468 14.2031L5.98661 14.9893L5.36853 15.7754C5.93905 16.2239 6.5775 16.5919 7.26758 16.8613L7.63114 15.9297ZM5.98661 14.9893L5.56386 14.083L4.54433 14.5586L4.96707 15.4648L5.38982 16.3711L6.40935 15.8955L5.98661 14.9893ZM4.96707 15.4648L4.54491 14.5583C4.24867 14.6963 3.90149 14.5827 3.74551 14.3158L2.88211 14.8203L2.01872 15.3248C2.70168 16.4936 4.16774 16.9402 5.38923 16.3714L4.96707 15.4648ZM2.88211 14.8203L3.74568 14.3161L3.07966 13.1754L2.2161 13.6797L1.35253 14.1839L2.01855 15.3246L2.88211 14.8203ZM2.2161 13.6797L3.07949 13.1752C2.92635 12.9131 2.99847 12.5761 3.25825 12.3979L2.69266 11.5732L2.12707 10.7486C1.00855 11.5157 0.666932 13.0107 1.3527 14.1842L2.2161 13.6797ZM2.69266 11.5732L3.25856 12.3977L4.18337 11.7629L3.61746 10.9385L3.05156 10.114L2.12676 10.7488L2.69266 11.5732ZM3.61746 10.9385L4.60649 10.7907C4.56775 10.5314 4.54716 10.2674 4.54715 9.99996L3.54715 10L2.54715 10C2.54717 10.3703 2.57568 10.733 2.62844 11.0862L3.61746 10.9385ZM3.54715 10H4.54715C4.54715 9.73119 4.56809 9.46544 4.60734 9.20426L3.61844 9.05566L2.62954 8.90707C2.5762 9.26205 2.54715 9.6272 2.54715 10H3.54715ZM3.61844 9.05566L4.19363 8.23764L3.29226 7.60385L2.71707 8.42188L2.14189 9.2399L3.04326 9.87369L3.61844 9.05566ZM2.71707 8.42188L3.2731 7.59071C3.00867 7.41381 2.93394 7.07333 3.08828 6.80921L2.22489 6.30469L1.36149 5.80016C0.669698 6.98403 1.02429 8.49258 2.16105 9.25304L2.71707 8.42188ZM2.22489 6.30469L3.08822 6.80931L3.73666 5.69994L2.87332 5.19531L2.00999 4.69069L1.36155 5.80006L2.22489 6.30469ZM2.87332 5.19531L3.73672 5.69984C3.89427 5.43023 4.24554 5.31778 4.54224 5.46016L4.97489 4.55859L5.40753 3.65703C4.18195 3.06889 2.69858 3.51229 2.00993 4.69079L2.87332 5.19531ZM4.97489 4.55859L4.56375 5.47017L5.57059 5.92427L5.98172 5.0127L6.39286 4.10112L5.38602 3.64702L4.97489 4.55859ZM5.98172 5.0127L6.60045 5.7983C7.02044 5.46752 7.49088 5.19699 7.9988 4.99926L7.63602 4.06738L7.27324 3.13551C6.57956 3.40556 5.93686 3.77513 5.363 4.22709L5.98172 5.0127ZM7.63602 4.06738L8.63134 4.16396L8.73681 3.07705L7.74149 2.98047L6.74616 2.88389L6.64069 3.9708L7.63602 4.06738ZM7.74149 2.98047L8.73888 3.05258C8.76064 2.75168 9.01862 2.5 9.35086 2.5V1.5V0.5C7.99055 0.5 6.84293 1.54122 6.74409 2.90836L7.74149 2.98047ZM9.35086 1.5V2.5H10.6487V1.5V0.5H9.35086V1.5Z" fill="currentColor" mask="url(#path-1-inside-1_1267_14899)"/>
<circle cx="10.0005" cy="9.99963" r="2.5" stroke="currentColor"/>
</svg>

<svg xmlns="http://www.w3.org/2000/svg" width="20" height="20" fill="none" viewBox="0 0 20 20"><mask id="a" fill="#fff"><path fill-rule="evenodd" d="M10.649 1.5c.846 0 1.548.647 1.608 1.48l.105 1.087a6.5 6.5 0 0 1 1.655.946l1.007-.454a1.623 1.623 0 0 1 2.101.636l.65 1.11a1.583 1.583 0 0 1-.493 2.117l-.9.632a6.4 6.4 0 0 1 0 1.886l.924.633c.69.473.897 1.389.477 2.107l-.667 1.14a1.624 1.624 0 0 1-2.085.645l-1.019-.475a6.5 6.5 0 0 1-1.646.94l-.092 1.11a1.606 1.606 0 0 1-1.608 1.46H9.333a1.605 1.605 0 0 1-1.607-1.46l-.095-1.11a6.5 6.5 0 0 1-1.644-.94l-1.02.475a1.623 1.623 0 0 1-2.085-.645l-.666-1.14a1.58 1.58 0 0 1 .477-2.107l.924-.635a6.4 6.4 0 0 1 .001-1.882l-.9-.634a1.583 1.583 0 0 1-.493-2.117l.648-1.11a1.623 1.623 0 0 1 2.102-.636l1.007.454a6.5 6.5 0 0 1 1.654-.946l.105-1.087c.06-.834.764-1.48 1.61-1.48z" clip-rule="evenodd"/></mask><path fill="currentColor" d="M10.649 1.5v-1zm1.608 1.48-.997.073v.011l.002.012zm.105 1.087-.996.096.06.613.573.223zm1.655.946-.619.785.477.376.553-.25zm1.007-.454.41.911.012-.005.01-.005zm2.101.636-.863.505zm.65 1.11.863-.505zm-.493 2.117-.556-.831-.01.006-.009.006zm-.9.632-.575-.819-.507.356.092.612zm.07.946h1zm-.07.94-.989-.148-.092.618.515.354zm.924.633-.566.825zm.477 2.107.864.505zm-.667 1.14-.863-.505zm-2.085.645.423-.907zm-1.019-.475.422-.906-.557-.26-.483.38zm-1.646.94-.363-.932-.581.227-.052.621zm-.092 1.11.996.083zm-1.608 1.46v1zm-1.333 0v1zm-1.607-1.46.996-.085v-.001zm-.095-1.11.997-.085-.053-.62-.58-.227zm-1.644-.94.618-.787-.484-.38-.557.26zm-1.02.475.422.906zm-2.085-.645-.863.505zm-.666-1.14.864-.505zm.477-2.107.565.825zm.924-.635.566.825.516-.354-.093-.618zM3.547 10h-1zm.071-.944.99.148.091-.61-.505-.356zm-.9-.634.574-.818-.01-.007-.009-.006zm-.493-2.117L1.362 5.8zm.648-1.11.864.505zm2.102-.636-.433.901.01.005.012.005zm1.007.454-.411.911.553.25.476-.376zm1.654-.946L7.999 5l.573-.223.06-.612zm.105-1.087.996.097.001-.012v-.012zM10.65 1.5v1c.331 0 .589.251.61.553l.998-.073.998-.072A2.605 2.605 0 0 0 10.649.5zm1.608 1.48-.995.096.104 1.087.996-.096.995-.095-.104-1.087zm.105 1.087L11.999 5c.508.198.979.469 1.4.8l.618-.786.619-.786a7.5 7.5 0 0 0-1.912-1.092zm1.655.946.411.911 1.007-.454-.411-.911-.411-.912-1.007.454zm1.007-.454.433.901a.623.623 0 0 1 .805.24l.863-.505.864-.504a2.623 2.623 0 0 0-3.398-1.034zm2.101.636-.863.506.65 1.109.863-.505.863-.506-.65-1.109zm.65 1.11-.864.504a.583.583 0 0 1-.185.782l.556.83.555.832a2.583 2.583 0 0 0 .801-3.453zm-.493 2.117-.575-.819-.9.632.574.819.575.818.9-.632zm-.9.632-.99.149q.06.391.06.797h2a7.4 7.4 0 0 0-.082-1.095zm.07.946h-1q0 .402-.059.792l.99.148.988.147A7.4 7.4 0 0 0 17.452 10zm-.07.94-.566.824.924.634.566-.825.566-.824-.924-.634zm.924.633-.566.825c.261.179.333.516.18.777l.863.505.864.504a2.583 2.583 0 0 0-.775-3.435zm.477 2.107-.863-.505-.667 1.14.863.505.864.505.667-1.14zm-.667 1.14-.863-.504a.624.624 0 0 1-.8.242l-.421.907-.423.906a2.624 2.624 0 0 0 3.37-1.046zm-2.085.645.423-.907-1.02-.474-.422.906-.422.907 1.02.474zm-1.019-.475-.618-.786a5.5 5.5 0 0 1-1.39.794l.363.932.363.931a7.5 7.5 0 0 0 1.9-1.085zm-1.646.94-.996-.084-.093 1.11.997.083.996.083.093-1.109zm-.092 1.11-.997-.085a.606.606 0 0 1-.61.545v2a2.606 2.606 0 0 0 2.603-2.377zm-1.608 1.46v-1H9.333v2h1.333zm-1.333 0v-1a.606.606 0 0 1-.61-.545l-.997.084-.997.084A2.605 2.605 0 0 0 9.333 19.5zm-1.607-1.46.996-.086-.094-1.11-.997.086-.996.085.094 1.11zm-.095-1.11.364-.932a5.5 5.5 0 0 1-1.39-.795l-.618.786-.618.786c.57.449 1.209.817 1.899 1.086zm-1.644-.94-.423-.907-1.02.476.423.906.423.906 1.02-.475zm-1.02.475-.422-.907a.623.623 0 0 1-.8-.242l-.863.504-.863.505a2.623 2.623 0 0 0 3.37 1.046zm-2.085-.645.864-.504-.666-1.14-.864.504-.863.504.666 1.14zm-.666-1.14.863-.505a.58.58 0 0 1 .18-.777l-.566-.825-.566-.824a2.58 2.58 0 0 0-.774 3.435zm.477-2.107.566.825.924-.635-.566-.825-.565-.824-.925.635zm.924-.635.99-.147a5.4 5.4 0 0 1-.06-.791h-2q.001.556.081 1.086zM3.547 10h1q0-.404.06-.796l-.989-.148-.988-.149Q2.548 9.44 2.547 10zm.071-.944.576-.818-.902-.634-.575.818-.575.818.901.634zm-.9-.634.555-.831a.583.583 0 0 1-.185-.782l-.863-.504L1.36 5.8a2.583 2.583 0 0 0 .8 3.453zm-.493-2.117.863.504.649-1.11-.864-.504-.863-.504-.648 1.11zm.648-1.11.864.505a.623.623 0 0 1 .805-.24l.433-.901.433-.902A2.623 2.623 0 0 0 2.01 4.691zm2.102-.636-.411.911 1.007.454.41-.911.412-.912-1.007-.454zm1.007.454.618.785C7.02 5.468 7.49 5.197 8 5l-.363-.932-.363-.931c-.693.27-1.336.64-1.91 1.091zm1.654-.946.995.097.106-1.087-.996-.097-.995-.096-.105 1.087zm.105-1.087.998.073c.022-.301.28-.553.612-.553v-2a2.606 2.606 0 0 0-2.607 2.408zm1.61-1.48v1h1.298v-2H9.35z" mask="url(#a)"/><circle cx="10.001" cy="10" r="2.5" stroke="currentColor"/></svg>
